public/livestock/sheep.svg

<svg fill="none" height="179" viewBox="0 0 179 179" width="179" xmlns="http://www.w3.org/2000/svg" xmlns:xlink="http://www.w3.org/1999/xlink"><clipPath id="a"><path d="m-.001953 0h178.13v178.13h-178.13z"/></clipPath><g clip-path="url(#a)"><path d="m85.6665 126.284c1.1943-.129 2.4039-.197 3.6287-.204v-26.7651c-4.6789 8.1751-5.9809 17.8531-3.6287 26.9741z" fill="#fbae17"/><path d="m84.5276 117.24c-.0076-6.29 1.6387-12.472 4.7739-17.925-4.3953-7.6714-11.4562-13.4603-19.8405-16.2662-8.3842-2.8059-17.5072-2.4333-25.6347 1.0471-8.1274 3.4804-14.6927 9.8259-18.4476 17.8301-3.755 8.004-4.4379 17.109-1.919 25.584-3.7254 2.533-6.946 5.738-9.4968 9.451 9.7696 15.288 23.9596 27.242 40.6848 34.273 6.2211 2.607 12.7201 4.494 19.3703 5.623 4.97.847 10.0027 1.272 15.0443 1.273h.2392v-52.05c-1.2249 0-2.4344.068-3.6288.204-.7619-2.954-1.1467-5.993-1.1451-9.044z" fill="#fdb98d"/><path d="m162.858 39.1579c-12.969-19.7448-33.251-33.52882-56.384-38.319682-23.132-4.790868-47.2203-.196141-66.9651 12.773382-19.7449 12.9695-33.52886 33.2514-38.31973 56.384-4.79086 23.1325-.196142 47.2204 12.77343 66.9654 2.5508-3.713 5.7714-6.918 9.4968-9.451-2.519-8.475-1.8361-17.58 1.9189-25.584 3.755-8.0043 10.3202-14.3498 18.4477-17.8302 8.1275-3.4805 17.2504-3.8531 25.6347-1.0472 8.3842 2.8059 15.4452 8.5948 19.8405 16.2662 4.3953-7.6714 11.4558-13.4603 19.8408-16.2662 8.384-2.8059 17.507-2.4333 25.634 1.0472 8.128 3.4804 14.693 9.8259 18.448 17.8302 3.755 8.004 4.438 17.109 1.919 25.584 3.602 2.452 6.733 5.533 9.242 9.095 9.236-14.637 14.01-31.646 13.739-48.9508-.271-17.3049-5.575-34.1563-15.266-48.4963z" fill="#3d113c"/><path d="m89.54 126.075c1.1502 0 2.2851.061 3.4048.163 2.3338-9.107 1.0266-18.764-3.644-26.9231v26.7651z" fill="#fbae17"/><path d="m155.143 127.51c2.519-8.475 1.836-17.58-1.919-25.584-3.755-8.0042-10.321-14.3497-18.448-17.8301-8.128-3.4804-17.251-3.853-25.635-1.0471s-15.4449 8.5948-19.8402 16.2662c4.6706 8.159 5.9778 17.816 3.644 26.923-1.1197-.107-2.2546-.163-3.4048-.163h-.2392v52.055c5.1098-.011 10.2093-.459 15.2432-1.339 6.881-1.206 13.595-3.224 20.001-6.01 16.4-7.15 30.278-19.055 39.84-34.176-2.509-3.562-5.64-6.643-9.242-9.095z" fill="#fc6719"/><path d="m89.2603 24.7906c-4.1629.0031-8.28.8699-12.0907 2.5458-3.8108 1.6758-7.2323 4.1242-10.0482 7.1903h-26.5413v.1374c0 4.0494 1.6086 7.9329 4.4719 10.7963 2.8634 2.8633 6.7469 4.472 10.7963 4.472h3.6949c-.2802 1.6529-.4215 3.3264-.4224 5.0029v47.3617c0 3.637.7163 7.238 2.1079 10.597 1.3916 3.36 3.4314 6.413 6.0028 8.984 5.1931 5.193 12.2366 8.111 19.5808 8.111h2.504v-105.1984z" fill="#fffac2"/><path d="m137.92 34.5267h-26.521c-2.811-3.0608-6.226-5.5061-10.03-7.1817-3.803-1.6757-7.9122-2.5454-12.0682-2.5544v105.2084h2.4225c3.6374 0 7.2391-.717 10.5997-2.109 3.36-1.392 6.413-3.433 8.985-6.005 2.571-2.573 4.611-5.627 6.002-8.987 1.391-3.361 2.106-6.963 2.105-10.601v-47.3312c-.001-1.6765-.142-3.35-.423-5.0029h3.66c4.049 0 7.933-1.6086 10.796-4.472 2.863-2.8633 4.472-6.7469 4.472-10.7962 0-.0866 0-.1222 0-.168z" fill="#00bcb4"/><g fill="#273329"><path d="m66.7604 73.2623c1.4307 0 2.5906-1.1598 2.5906-2.5905s-1.1599-2.5905-2.5906-2.5905-2.5905 1.1598-2.5905 2.5905 1.1598 2.5905 2.5905 2.5905z"/><path d="m111.76 73.2623c1.431 0 2.591-1.1598 2.591-2.5905s-1.16-2.5905-2.591-2.5905c-1.43 0-2.59 1.1598-2.59 2.5905s1.16 2.5905 2.59 2.5905z"/><path d="m82.5071 117.459c.8938 0 1.6184-.725 1.6184-1.619s-.7246-1.618-1.6184-1.618-1.6184.724-1.6184 1.618.7246 1.619 1.6184 1.619z"/><path d="m96.0149 117.459c.8939 0 1.6185-.725 1.6185-1.619s-.7246-1.618-1.6185-1.618c-.8938 0-1.6184.724-1.6184 1.618s.7246 1.619 1.6184 1.619z"/></g></g></svg>

<svg width="179" height="179" viewBox="0 0 179 179" fill="none" xmlns="http://www.w3.org/2000/svg">
<g clip-path="url(#clip0_2831_6040)">
<path d="M85.6665 126.284C86.8608 126.155 88.0704 126.087 89.2952 126.08V99.3149C84.6163 107.49 83.3143 117.168 85.6665 126.289V126.284Z" fill="#FBAE17"/>
<path d="M84.5276 117.24C84.52 110.95 86.1663 104.768 89.3015 99.315C84.9062 91.6436 77.8453 85.8547 69.461 83.0488C61.0768 80.2429 51.9538 80.6155 43.8263 84.0959C35.6989 87.5763 29.1336 93.9218 25.3787 101.926C21.6237 109.93 20.9408 119.035 23.4597 127.51C19.7343 130.043 16.5137 133.248 13.9629 136.961C23.7325 152.249 37.9225 164.203 54.6477 171.234C60.8688 173.841 67.3678 175.728 74.018 176.857C78.988 177.704 84.0207 178.129 89.0623 178.13H89.3015V126.08C88.0766 126.08 86.8671 126.148 85.6727 126.284C84.9108 123.33 84.526 120.291 84.5276 117.24V117.24Z" fill="#FDB98D"/>
<path d="M162.858 39.1579C149.889 19.4131 129.607 5.62908 106.474 0.838218C83.342 -3.95265 59.2537 0.642077 39.5089 13.6116C19.764 26.5811 5.98004 46.863 1.18917 69.9956C-3.60169 93.1281 0.993028 117.216 13.9626 136.961C16.5134 133.248 19.734 130.043 23.4594 127.51C20.9404 119.035 21.6233 109.93 25.3783 101.926C29.1333 93.9217 35.6985 87.5762 43.826 84.0958C51.9535 80.6153 61.0764 80.2427 69.4607 83.0486C77.8449 85.8545 84.9059 91.6434 89.3012 99.3148C93.6965 91.6434 100.757 85.8545 109.142 83.0486C117.526 80.2427 126.649 80.6153 134.776 84.0958C142.904 87.5762 149.469 93.9217 153.224 101.926C156.979 109.93 157.662 119.035 155.143 127.51C158.745 129.962 161.876 133.043 164.385 136.605C173.621 121.968 178.395 104.959 178.124 87.6542C177.853 70.3493 172.549 53.4979 162.858 39.1579V39.1579Z" fill="#3D113C"/>
<path d="M89.54 126.075C90.6902 126.075 91.8251 126.136 92.9448 126.238C95.2786 117.131 93.9714 107.474 89.3008 99.3149V126.08L89.54 126.075Z" fill="#FBAE17"/>
<path d="M155.143 127.51C157.662 119.035 156.979 109.93 153.224 101.926C149.469 93.9218 142.903 87.5763 134.776 84.0959C126.648 80.6155 117.525 80.2429 109.141 83.0488C100.757 85.8547 93.6961 91.6436 89.3008 99.315C93.9714 107.474 95.2786 117.131 92.9448 126.238C91.8251 126.131 90.6902 126.075 89.54 126.075H89.3008V178.13C94.4106 178.119 99.5101 177.671 104.544 176.791C111.425 175.585 118.139 173.567 124.545 170.781C140.945 163.631 154.823 151.726 164.385 136.605C161.876 133.043 158.745 129.962 155.143 127.51V127.51Z" fill="#FC6719"/>
<path d="M89.2603 24.7906C85.0974 24.7937 80.9803 25.6605 77.1696 27.3364C73.3588 29.0122 69.9373 31.4606 67.1214 34.5267H40.5801C40.5801 34.5725 40.5801 34.6183 40.5801 34.6641C40.5801 38.7135 42.1887 42.597 45.052 45.4604C47.9154 48.3237 51.7989 49.9324 55.8483 49.9324H59.5432C59.263 51.5853 59.1217 53.2588 59.1208 54.9353V102.297C59.1208 105.934 59.8371 109.535 61.2287 112.894C62.6203 116.254 64.6601 119.307 67.2315 121.878C72.4246 127.071 79.4681 129.989 86.8123 129.989H89.3163V24.7906H89.2603Z" fill="#FFFAC2"/>
<path d="M137.92 34.5267H111.399C108.588 31.4659 105.173 29.0206 101.369 27.345C97.566 25.6693 93.4568 24.7996 89.3008 24.7906V129.999H91.7233C95.3607 129.999 98.9624 129.282 102.323 127.89C105.683 126.498 108.736 124.457 111.308 121.885C113.879 119.312 115.919 116.258 117.31 112.898C118.701 109.537 119.416 105.935 119.415 102.297V54.9658C119.414 53.2893 119.273 51.6158 118.992 49.9629H122.652C126.701 49.9629 130.585 48.3543 133.448 45.4909C136.311 42.6276 137.92 38.744 137.92 34.6947C137.92 34.6081 137.92 34.5725 137.92 34.5267Z" fill="#00BCB4"/>
<path d="M66.7604 73.2623C68.1911 73.2623 69.351 72.1025 69.351 70.6718C69.351 69.2411 68.1911 68.0813 66.7604 68.0813C65.3297 68.0813 64.1699 69.2411 64.1699 70.6718C64.1699 72.1025 65.3297 73.2623 66.7604 73.2623Z" fill="#273329"/>
<path d="M111.76 73.2623C113.191 73.2623 114.351 72.1025 114.351 70.6718C114.351 69.2411 113.191 68.0813 111.76 68.0813C110.33 68.0813 109.17 69.2411 109.17 70.6718C109.17 72.1025 110.33 73.2623 111.76 73.2623Z" fill="#273329"/>
<path d="M82.5071 117.459C83.4009 117.459 84.1255 116.734 84.1255 115.84C84.1255 114.946 83.4009 114.222 82.5071 114.222C81.6133 114.222 80.8887 114.946 80.8887 115.84C80.8887 116.734 81.6133 117.459 82.5071 117.459Z" fill="#273329"/>
<path d="M96.0149 117.459C96.9088 117.459 97.6334 116.734 97.6334 115.84C97.6334 114.946 96.9088 114.222 96.0149 114.222C95.1211 114.222 94.3965 114.946 94.3965 115.84C94.3965 116.734 95.1211 117.459 96.0149 117.459Z" fill="#273329"/>
</g>
<defs>
<clipPath id="clip0_2831_6040">
<rect width="178.13" height="178.13" fill="white" transform="translate(-0.00195312)"/>
</clipPath>
</defs>
</svg>
